img/vmm.svg

<?xml version="1.0" standalone="yes"?>
<svg xmlns="http://www.w3.org/2000/svg" width="128" height="54">
<path style="fill:#040404; stroke:none;" d="M0 0L0 54L128 54L128 0L0 0z"/>
<path style="fill:#702a3c; stroke:none;" d="M9 7C11.878 17.5224 16.65 34.0386 23.3634 42.6821C25.429 45.3415 30.6193 45.841 33.5818 44.3966C36.8298 42.813 38.1106 37.0718 39.4213 34C43.2633 24.996 47.2852 16.0546 51 7C36.1987 7 34.839 18.5275 30 31C24.2962 18.8064 24.3378 7 9 7z"/>
<path style="fill:#9ea3a4; stroke:none;" d="M51 7L53 15L55 15C54.7286 20.9398 61.1654 40.4666 66.4707 43.9722C69.2366 45.7999 73.8413 45 77 45L66 17L58 14L64 13C61.1757 6.78734 57.2433 7.00069 51 7z"/>
<path style="fill:#615e62; stroke:none;" d="M61 7C62.6021 10.7766 63.78 13.2745 68 14L68 15L65 16C67.606 23.7033 71.0914 37.5863 76.8426 43.3966C84.0783 50.7067 91.7917 39.7431 91.7917 33C91.7917 24.8212 85.1648 15.931 83 8L77 19L76 19C74.1737 8.72267 69.7455 9.08212 61 7z"/>
<path style="fill:#702a3c; stroke:none;" d="M62 7L62 8L72 8L62 7z"/>
<path style="fill:#9ea3a4; stroke:none;" d="M82 7L91.8341 32L97.6489 43.9722L108 45C103.615 32.0382 99.3769 22.8694 90 14L95 13L93 7L82 7z"/>
<path style="fill:#702a3c; stroke:none;" d="M93 7L93 8L104 8L93 7z"/>
<path style="fill:#615e62; stroke:none;" d="M50 8L43 25L54 24C49.4889 35.6308 48.5647 43 35 43L35 45C40.4692 45 50.8951 47.01 55.6065 43.9722C66.4144 37.0035 56.1039 14.918 50 8M93 8C94.1135 11.6298 95.1699 13.342 99 14L96 16C101.154 29.2873 102.952 45 119 45C116.876 37.2341 112.589 21.8304 106 17C106.38 8.02239 100.27 8 93 8z"/>
<path style="fill:#9ea3a4; stroke:none;" d="M73 11L74 12L73 11z"/>
<path style="fill:#c9cccd; stroke:none;" d="M84 12L85 13L84 12M53 13L54 14L53 13M58 14L65 17L64 13L58 14M90 14L96 17L95 13L90 14z"/>
<path style="fill:#9ea3a4; stroke:none;" d="M105 13L106 14L105 13M64 14L64 15L68 15L64 14z"/>
<path style="fill:#c9cccd; stroke:none;" d="M85 14L86 15L85 14z"/>
<path style="fill:#9ea3a4; stroke:none;" d="M95 14L95 15L99 16L95 14z"/>
<path style="fill:#c9cccd; stroke:none;" d="M54 15L55 16L54 15z"/>
<path style="fill:#9ea3a4; stroke:none;" d="M106 16L107 17L106 16z"/>
<path style="fill:#c9cccd; stroke:none;" d="M86 17L87 18L86 17M76 18L77 19L76 18z"/>
<path style="fill:#702a3c; stroke:none;" d="M108 19L109 20L108 19M87 21L88 22L87 21z"/>
<path style="fill:#9ea3a4; stroke:none;" d="M36 43C48.729 43 50.8095 35.6649 54 24C41.8347 24.0013 39.0291 31.9252 36 43M79 24L82 31L85 24L79 24z"/>
<path style="fill:#615e62; stroke:none;" d="M42 26L43 27L42 26M41 29L42 30L41 29M40 31L41 32L40 31M39 33L40 34L39 33z"/>
<path style="fill:#c9cccd; stroke:none;" d="M61 34L62 35L61 34M62 36L63 37L62 36z"/>
<path style="fill:#615e62; stroke:none;" d="M37 38L38 39L37 38M94 38L95 39L94 38M36 40L37 41L36 40M64 41L65 42L64 41z"/>
</svg>

<svg xmlns="http://www.w3.org/2000/svg" width="128" height="54"><path d="M0 0v54h128V0z" style="fill:#040404;stroke:none"/><path d="M9 7c2.878 10.522 7.65 27.039 14.363 35.682 2.066 2.66 7.256 3.159 10.219 1.715 3.248-1.584 4.529-7.325 5.84-10.397C43.262 24.996 47.284 16.055 51 7 36.199 7 34.839 18.528 30 31 24.296 18.806 24.338 7 9 7" style="fill:#702a3c;stroke:none"/><path d="m51 7 2 8h2c-.271 5.94 6.165 25.467 11.47 28.972C69.238 45.8 73.842 45 77 45L66 17l-8-3 6-1c-2.824-6.213-6.757-6-13-6" style="fill:#9ea3a4;stroke:none"/><path d="M61 7c1.602 3.777 2.78 6.275 7 7v1l-3 1c2.606 7.703 6.091 21.586 11.843 27.397 7.235 7.31 14.949-3.654 14.949-10.397 0-8.179-6.627-17.069-8.792-25l-6 11h-1C74.174 8.723 69.746 9.082 61 7" style="fill:#615e62;stroke:none"/><path d="M62 7v1h10z" style="fill:#702a3c;stroke:none"/><path d="m82 7 9.834 25 5.815 11.972L108 45c-4.385-12.962-8.623-22.13-18-31l5-1-2-6z" style="fill:#9ea3a4;stroke:none"/><path d="M93 7v1h11z" style="fill:#702a3c;stroke:none"/><path d="m50 8-7 17 11-1c-4.511 11.63-5.435 19-19 19v2c5.47 0 15.895 2.01 20.606-1.028C66.415 37.004 56.104 14.918 50 8m43 0c1.114 3.63 2.17 5.342 6 6l-3 2c5.154 13.287 6.952 29 23 29-2.124-7.766-6.411-23.17-13-28 .38-8.978-5.73-9-13-9" style="fill:#615e62;stroke:none"/><path d="m73 11 1 1z" style="fill:#9ea3a4;stroke:none"/><path d="m84 12 1 1zm-31 1 1 1zm5 1 7 3-1-4zm32 0 6 3-1-4z" style="fill:#c9cccd;stroke:none"/><path d="m105 13 1 1zm-41 1v1h4z" style="fill:#9ea3a4;stroke:none"/><path d="m85 14 1 1z" style="fill:#c9cccd;stroke:none"/><path d="M95 14v1l4 1z" style="fill:#9ea3a4;stroke:none"/><path d="m54 15 1 1z" style="fill:#c9cccd;stroke:none"/><path d="m106 16 1 1z" style="fill:#9ea3a4;stroke:none"/><path d="m86 17 1 1zm-10 1 1 1z" style="fill:#c9cccd;stroke:none"/><path d="m108 19 1 1zm-21 2 1 1z" style="fill:#702a3c;stroke:none"/><path d="M36 43c12.729 0 14.81-7.335 18-19-12.165.001-14.97 7.925-18 19m43-19 3 7 3-7z" style="fill:#9ea3a4;stroke:none"/><path d="m42 26 1 1zm-1 3 1 1zm-1 2 1 1zm-1 2 1 1z" style="fill:#615e62;stroke:none"/><path d="m61 34 1 1zm1 2 1 1z" style="fill:#c9cccd;stroke:none"/><path d="m37 38 1 1zm57 0 1 1zm-58 2 1 1zm28 1 1 1z" style="fill:#615e62;stroke:none"/></svg>
